packages/kaspersky-hexa-ui-icons/src/iconsSVGs/16/CodeInjection.svg

<svg width="16" height="16" viewBox="0 0 16 16" fill="none" xmlns="http://www.w3.org/2000/svg">
<path d="M3.64092 15.0162C2.56396 15.0162 1.69092 14.1431 1.69092 13.0662V9.29993C1.69092 8.22298 2.56396 7.34993 3.64092 7.34993H4.22721C4.5862 7.34993 4.87721 7.64095 4.87721 7.99993C4.87721 8.35892 4.5862 8.64993 4.22721 8.64993H3.64092C3.28193 8.64993 2.99092 8.94095 2.99092 9.29993V13.0662C2.99092 13.4252 3.28193 13.7162 3.64092 13.7162H12.3587C12.7177 13.7162 13.0087 13.4252 13.0087 13.0662V9.29993C13.0087 8.94095 12.7177 8.64993 12.3587 8.64993H11.7724C11.4134 8.64993 11.1224 8.35892 11.1224 7.99993C11.1224 7.64095 11.4134 7.34993 11.7724 7.34993H12.3587C13.4356 7.34993 14.3087 8.22298 14.3087 9.29993V13.0662C14.3087 14.1431 13.4357 15.0162 12.3587 15.0162H3.64092Z" fill="black"/>
<path d="M7.99981 12.8941C8.1722 12.8941 8.33753 12.8256 8.45942 12.7037L10.5815 10.5816C10.8354 10.3278 10.8354 9.91623 10.5815 9.66239C10.3277 9.40855 9.91611 9.40855 9.66227 9.66239L8.64981 10.6749V3.0484C8.64981 2.68942 8.35879 2.3984 7.99981 2.3984C7.64082 2.3984 7.34981 2.68942 7.34981 3.0484V10.6749L6.33734 9.66239C6.0835 9.40855 5.67194 9.40855 5.4181 9.66239C5.16426 9.91623 5.16426 10.3278 5.4181 10.5816L7.54019 12.7037C7.66208 12.8256 7.82741 12.8941 7.99981 12.8941Z" fill="black"/>
<path d="M6.26772 5.35785C6.55491 5.57324 6.61311 5.98066 6.39772 6.26785C6.18233 6.55504 5.77491 6.61324 5.48772 6.39785L2.65828 4.27576C2.4946 4.15301 2.39828 3.96036 2.39828 3.75576C2.39828 3.55117 2.4946 3.35852 2.65828 3.23576L5.48772 1.11368C5.77491 0.89829 6.18233 0.956493 6.39772 1.24368C6.61311 1.53087 6.55491 1.93829 6.26772 2.15368L4.13161 3.75576L6.26772 5.35785Z" fill="black"/>
<path d="M9.60189 6.26785C9.3865 5.98066 9.4447 5.57324 9.73189 5.35785L11.868 3.75576L9.73189 2.15368C9.4447 1.93829 9.3865 1.53087 9.60189 1.24368C9.81728 0.956493 10.2247 0.89829 10.5119 1.11368L13.3413 3.23576C13.505 3.35852 13.6013 3.55117 13.6013 3.75576C13.6013 3.96036 13.505 4.15301 13.3413 4.27576L10.5119 6.39785C10.2247 6.61324 9.81728 6.55504 9.60189 6.26785Z" fill="black"/>
</svg>

<svg xmlns="http://www.w3.org/2000/svg" width="16" height="16" fill="none" viewBox="0 0 16 16"><path d="M0 16h16V0H0z"/><path fill="#000" fill-rule="evenodd" d="M6.2679 5.3579a.65.65 0 1 1-.78 1.04l-2.8294-2.122a.65.65 0 0 1 0-1.04l2.8294-2.1222a.65.65 0 0 1 .78 1.04L4.1318 3.7558zm3.3342.91a.65.65 0 0 1 .13-.91l2.1361-1.602-2.1361-1.6022a.65.65 0 1 1 .78-1.04l2.8294 2.1221a.65.65 0 0 1 0 1.04L10.5121 6.398a.65.65 0 0 1-.91-.13M8 12.8942a.65.65 0 0 0 .4596-.1904l2.1221-2.1221a.65.65 0 0 0-.9192-.9192L8.65 10.6749V3.0485a.65.65 0 0 0-1.3 0v7.6264L6.3375 9.6625a.65.65 0 0 0-.9192.9192l2.122 2.1221A.65.65 0 0 0 8 12.8942m-4.3589 2.122c-1.077 0-1.95-.873-1.95-1.95V9.3c0-1.077.873-1.95 1.95-1.95h.5863a.65.65 0 1 1 0 1.3h-.5863a.65.65 0 0 0-.65.65v3.7662c0 .359.291.65.65.65h8.7178a.65.65 0 0 0 .65-.65V9.3a.65.65 0 0 0-.65-.65h-.5863a.65.65 0 1 1 0-1.3h.5863c1.0769 0 1.95.873 1.95 1.95v3.7662c0 1.077-.8731 1.95-1.95 1.95z"/></svg>
